assets/Statue of liberty/Flat/statue_of_liberty_flat.svg

<svg width="32" height="32" viewBox="0 0 32 32" fill="none" xmlns="http://www.w3.org/2000/svg">
<path d="M7.96069 6H10.9607C11.5107 6 11.9607 6.45 11.9607 7C11.9607 7.55 11.5107 8 10.9607 8H8.83772L10.0844 9.47572C10.0814 9.43772 10.0771 9.38701 10.0707 9.32C10.0507 9.11 10.1507 8.86 10.3807 8.81C10.6107 8.76 10.8707 8.91 10.8907 9.13C10.9107 9.34 10.9207 9.45 10.9207 9.45C10.9407 9.63 10.9807 9.81 11.0507 9.98L11.1407 10.2C11.1551 10.2555 11.158 10.311 11.1507 10.3639V10.76C11.1507 11.7 10.6107 11.76 10.6107 11.76L10.5909 14.0439C10.6591 14.0035 10.7445 13.9872 10.8407 14.01L14.6807 14.87C14.6928 14.8722 14.7042 14.8756 14.715 14.88L21.2365 14.88C21.2472 14.8756 21.2587 14.8722 21.2707 14.87L25.1107 14.01C25.4907 13.92 25.7007 14.44 25.3607 14.64L21.9807 16.66C21.8907 16.72 21.7607 16.67 21.7207 16.57L21.3 15.5109V18.1541C21.3 18.9444 21.21 21.215 21 22.2436C20.61 24.1379 18.0707 24.74 17.9507 24.74C17.8207 24.74 15.16 24.1002 14.78 22.1935C14.58 21.1899 14.5 18.9444 14.5 18.1541V15.8922L14.2307 16.57C14.1907 16.67 14.0607 16.72 13.9707 16.66L10.5857 14.637L10.5599 17.6091L14.1307 17.04C14.2407 17.01 14.3407 17.1 14.3407 17.21V18.78C14.3407 18.89 14.2407 18.98 14.1307 18.96L10.5531 18.3898L10.5107 23.26L6.49072 21.29L8.22072 12.41V12.4C8.29072 11.92 8.14072 11.42 7.82072 11.06C7.81406 11.0533 7.80739 11.0456 7.80072 11.0378C7.78739 11.0222 7.77406 11.0067 7.76072 11L7.76517 10.9871L7.74067 10.98C7.52067 10.91 7.39067 10.68 7.45067 10.45C7.51521 10.2471 7.71577 10.1208 7.92694 10.1494L7.61072 10.06C7.39072 9.99 7.26072 9.76 7.32072 9.53C7.38422 9.33043 7.57939 9.20492 7.78678 9.22812L7.62067 9.18C7.40067 9.11 7.27067 8.88 7.34067 8.65C7.40067 8.43 7.64067 8.3 7.86067 8.36L7.95072 8.38609V7.99995C7.40527 7.99455 6.96069 7.54667 6.96069 7C6.96069 6.45 7.41069 6 7.96069 6ZM17.1707 13.39H18.7407C18.8507 13.39 18.9407 13.29 18.9207 13.18L18.3007 9.29C18.2407 8.9 17.6807 8.9 17.6207 9.29L17.0007 13.18C16.9707 13.29 17.0507 13.39 17.1707 13.39ZM21.0407 14.48L19.7607 13.56C19.6707 13.49 19.6607 13.36 19.7407 13.29L22.5107 10.49C22.7907 10.21 23.2507 10.54 23.0707 10.89L21.3107 14.41C21.2607 14.51 21.1307 14.55 21.0407 14.48ZM14.8607 14.48L16.1407 13.56C16.2307 13.49 16.2407 13.36 16.1707 13.28L13.4007 10.48C13.1207 10.2 12.6607 10.53 12.8407 10.88L14.5907 14.41C14.6407 14.51 14.7707 14.55 14.8607 14.48ZM21.5607 18.78V17.21C21.5607 17.1 21.6607 17.01 21.7707 17.04L25.6607 17.66C26.0507 17.72 26.0507 18.28 25.6607 18.34L21.7707 18.96C21.6607 18.98 21.5607 18.89 21.5607 18.78Z" fill="#72CCB4"/>
<path d="M18.4207 13H17.4207C15.5007 13.02 14 14.59 14 16.51V18.47C14 16.55 15.5007 14.99 17.4207 14.97L18.4207 14.96C20.3707 14.94 22 16.51 22 18.46V16.5C22 14.55 20.3707 12.98 18.4207 13ZM15 16.7725V17H16.51C17.2503 17 17.8684 16.4539 17.9815 15.7443L17.4107 15.75C16.4583 15.7599 15.6116 16.1487 15 16.7725ZM18.0416 15.7437L18.4107 15.74C19.4176 15.7297 20.3417 16.1433 21 16.8143V17H19.62C18.8549 17 18.2081 16.4605 18.0416 15.7437ZM15.5 25.78V21.465C16.1779 22.6021 17.881 23 17.995 23C18.0804 23 19.2116 22.7535 20 22.0602V25.78H15.5Z" fill="#49B59D"/>
<path d="M8.3645 8H10.3769L10.346 8.81935C10.1406 8.8858 10.0517 9.12088 10.0707 9.32C10.0907 9.53 10.0907 9.58 10.0907 9.58C10.1107 9.77 10.1507 9.95 10.2207 10.11C10.2207 10.11 10.2353 10.1902 10.2893 10.3195L10.1307 14.52C10.1207 14.79 9.9107 15 9.6407 15H9.1007C8.8307 15 8.6207 14.79 8.6107 14.52L8.48437 11.1744C8.66412 11.1685 8.8337 11.049 8.89067 10.87C8.95067 10.64 8.82067 10.41 8.60067 10.34L8.5589 10.3279C8.77084 10.3788 8.9937 10.2506 9.06072 10.04C9.12072 9.81 8.99072 9.58 8.77072 9.51L8.73294 9.49891C8.94827 9.53372 9.15496 9.40651 9.22067 9.2C9.28067 8.97 9.15067 8.74 8.93067 8.67L8.38382 8.51157L8.3645 8ZM17.4107 13.79L18.4107 13.78C19.9493 13.7563 21.2945 14.735 21.7936 16.1069C21.9183 16.2133 22 16.3888 22 16.5868V17.28V19.24V19.4132C22 19.7022 21.826 19.9433 21.5982 19.9913L22.6633 25.5171C22.7545 25.5677 22.8438 25.622 22.9307 25.68C22.9307 25.68 25.9607 27.68 25.9507 29.03V30.03L17.6407 30.04L6.9507 30.03L6.9607 28.19C6.9607 26.8 6.7807 25.42 6.4307 24.08C6.3507 23.78 6.2707 23.43 6.2007 23.1C5.9707 22 5.9307 20.86 6.1207 19.74C6.2807 18.85 6.9507 18 7.1507 18L6.9507 19.69C6.9507 20.37 7.6407 21 8.3207 21C10.4456 21 10.5088 19.3525 10.5563 18.1128L10.5607 18C11.1358 18 12.4043 19.6434 13.2645 20.9211L14 18.8462V17.29V16.5868C14 16.3964 14.0756 16.2309 14.1923 16.1245C14.6539 14.7758 15.8993 13.8057 17.4107 13.79ZM15 16.7725V17.0219V17.6565C15 18.2977 15.0801 20.1196 15.2805 20.9338C15.3935 21.3933 15.6674 21.7622 16 22.0536V23.9525C16.3366 24.2275 16.6604 24.4543 16.9507 24.61C17.5507 24.94 18.4007 25.03 18.9507 25.03H19.9607V22.0941C20.3 21.806 20.5817 21.4379 20.6995 20.9746C20.9098 20.14 21 18.2977 21 17.6565V16.8881V16.8143C20.3417 16.1433 19.4176 15.7297 18.4107 15.74L17.4107 15.75C16.4583 15.7599 15.6116 16.1487 15 16.7725Z" fill="#14A085"/>
<path opacity="0.54" d="M10.4807 22.03C10.2707 21.63 9.67068 21.79 9.38068 22.18L6.70068 25.28C6.95068 26.42 6.96068 27.99 6.96068 28.65L9.94068 25.37C10.5607 24.7 10.9007 23.82 10.9007 22.9L10.4807 22.03ZM7.95068 30.03L16.7807 25.74C16.9507 25.65 17.1107 25.88 16.9707 26.01L12.9507 30.03H7.95068ZM21.7807 27.15L22.8407 30.04H24.3907L22.0707 26.99C21.9507 26.84 21.7107 26.97 21.7807 27.15Z" fill="#49B59D"/>
<path d="M10.9508 6C10.9508 6 11.3908 5.51 11.3908 5C11.3908 4.49 11.1308 3.86 10.7908 3.31C10.4408 2.76 9.87076 2 9.56076 2C9.25076 2 9.13076 2.6 9.04076 2.81C8.95076 3.02 8.74076 3.43 8.62076 3.43C8.50076 3.43 8.45076 3.17 8.32076 3.17C8.07076 3.17 7.53076 4.37 7.53076 4.84C7.53076 5.31 7.72076 5.78 7.95076 6H10.9508Z" fill="#FF822D"/>
</svg>

<svg xmlns="http://www.w3.org/2000/svg" width="32" height="32" fill="none"><path fill="#72CCB4" d="M7.96 6h3c.55 0 1 .45 1 1s-.45 1-1 1H8.839l1.246 1.476a9.456 9.456 0 0 0-.013-.156c-.02-.21.08-.46.31-.51.23-.05.49.1.51.32l.03.32c.02.18.06.36.13.53l.09.22a.422.422 0 0 1 .01.164v.396c0 .94-.54 1-.54 1l-.02 2.284a.33.33 0 0 1 .25-.034l3.84.86a.172.172 0 0 1 .034.01h6.521a.171.171 0 0 1 .035-.01l3.84-.86c.38-.09.59.43.25.63l-3.38 2.02c-.09.06-.22.01-.26-.09l-.421-1.06v2.644c0 .79-.09 3.061-.3 4.09-.39 1.894-2.93 2.496-3.05 2.496-.13 0-2.79-.64-3.17-2.546-.2-1.004-.28-3.25-.28-4.04v-2.262l-.27.678c-.04.1-.17.15-.26.09l-3.384-2.023-.026 2.972 3.57-.569c.11-.03.21.06.21.17v1.57c0 .11-.1.2-.21.18l-3.577-.57-.042 4.87-4.02-1.97 1.73-8.88v-.01a1.674 1.674 0 0 0-.42-1.362.156.156 0 0 0-.04-.038l.004-.013-.024-.007a.438.438 0 0 1-.29-.53.437.437 0 0 1 .476-.3l-.316-.09a.438.438 0 0 1-.29-.53.437.437 0 0 1 .466-.302L7.62 9.18a.427.427 0 0 1 .24-.82l.09.026V8a1.003 1.003 0 0 1-.99-1c0-.55.45-1 1-1Zm9.21 7.39h1.57c.11 0 .2-.1.18-.21l-.62-3.89c-.06-.39-.62-.39-.68 0L17 13.18c-.03.11.05.21.17.21Zm3.87 1.09-1.28-.92c-.09-.07-.1-.2-.02-.27l2.77-2.8c.28-.28.74.05.56.4l-1.76 3.52c-.05.1-.18.14-.27.07Zm-6.18 0 1.28-.92c.09-.07.1-.2.03-.28l-2.77-2.8c-.28-.28-.74.05-.56.4l1.75 3.53c.05.1.18.14.27.07Zm6.7 4.3v-1.57c0-.11.1-.2.21-.17l3.89.62c.39.06.39.62 0 .68l-3.89.62a.182.182 0 0 1-.21-.18Z"/><path fill="#49B59D" d="M18.42 13h-1c-1.92.02-3.42 1.59-3.42 3.51v1.96c0-1.92 1.5-3.48 3.42-3.5l1-.01c1.95-.02 3.58 1.55 3.58 3.5V16.5c0-1.95-1.63-3.52-3.58-3.5ZM15 16.773V17h1.51c.74 0 1.358-.546 1.471-1.256l-.57.006c-.953.01-1.8.399-2.411 1.023Zm3.042-1.03.369-.003A3.576 3.576 0 0 1 21 16.814V17h-1.38c-.765 0-1.412-.54-1.578-1.256ZM15.5 25.78v-4.315C16.178 22.602 17.881 23 17.995 23c.085 0 1.217-.247 2.005-.94v3.72h-4.5Z"/><path fill="#14A085" d="M8.364 8h2.013l-.031.82c-.205.066-.294.3-.275.5.02.21.02.26.02.26.02.19.06.37.13.53 0 0 .014.08.068.21l-.158 4.2c-.01.27-.22.48-.49.48H9.1c-.27 0-.48-.21-.49-.48l-.127-3.346a.445.445 0 0 0 .407-.304.438.438 0 0 0-.29-.53l-.042-.012a.43.43 0 0 0 .502-.288.438.438 0 0 0-.29-.53l-.038-.011A.437.437 0 0 0 9.22 9.2a.438.438 0 0 0-.29-.53l-.547-.158L8.364 8Zm9.047 5.79 1-.01a3.557 3.557 0 0 1 3.383 2.327.63.63 0 0 1 .206.48v2.826c0 .29-.174.53-.402.578l1.065 5.526c.091.05.18.105.268.163 0 0 3.03 2 3.02 3.35v1l-8.31.01-10.69-.01.01-1.84c0-1.39-.18-2.77-.53-4.11-.08-.3-.16-.65-.23-.98-.23-1.1-.27-2.24-.08-3.36.16-.89.83-1.74 1.03-1.74l-.2 1.69c0 .68.69 1.31 1.37 1.31 2.125 0 2.188-1.648 2.235-2.887l.005-.113c.575 0 1.843 1.643 2.704 2.921L14 18.846v-2.259c0-.19.076-.356.192-.462a3.425 3.425 0 0 1 3.219-2.335ZM15 16.773v.884c0 .64.08 2.463.28 3.277.114.46.387.828.72 1.12v1.899c.337.274.66.501.95.657.6.33 1.45.42 2 .42h1.01v-2.936c.34-.288.622-.656.74-1.12.21-.834.3-2.676.3-3.317v-.843a3.576 3.576 0 0 0-2.59-1.074l-1 .01c-.952.01-1.798.399-2.41 1.023Z"/><path fill="#49B59D" d="M10.48 22.03c-.21-.4-.81-.24-1.1.15l-2.68 3.1c.25 1.14.26 2.71.26 3.37l2.98-3.28c.62-.67.96-1.55.96-2.47l-.42-.87Zm-2.53 8 8.83-4.29c.17-.09.33.14.19.27l-4.02 4.02h-5Zm13.83-2.88 1.06 2.89h1.55l-2.32-3.05c-.12-.15-.36-.02-.29.16Z" opacity=".54"/><path fill="#FF822D" d="M10.95 6s.44-.49.44-1-.26-1.14-.6-1.69C10.44 2.76 9.87 2 9.56 2c-.31 0-.43.6-.52.81-.09.21-.3.62-.42.62s-.17-.26-.3-.26c-.25 0-.79 1.2-.79 1.67s.19.94.42 1.16h3Z"/></svg>
